public/img/index_features/bug_feature.svg

<svg width="25" height="24" viewBox="0 0 25 24" fill="none" xmlns="http://www.w3.org/2000/svg">
<g id="bug">
<path id="Vector" d="M8.5 1.99998L10.38 3.87998" stroke="#F56C87" stroke-width="2" stroke-linecap="round" stroke-linejoin="round"/>
<path id="Vector_2" d="M14.6191 3.87998L16.4991 1.99998" stroke="#F56C87" stroke-width="2" stroke-linecap="round" stroke-linejoin="round"/>
<path id="Vector_3" d="M9.49909 7.13V6.13C9.48097 5.72475 9.54513 5.32003 9.68772 4.94025C9.83031 4.56048 10.0484 4.21353 10.3287 3.92035C10.6091 3.62717 10.9459 3.39383 11.319 3.23441C11.692 3.07499 12.0934 2.99281 12.4991 2.99281C12.9048 2.99281 13.3062 3.07499 13.6792 3.23441C14.0522 3.39383 14.3891 3.62717 14.6695 3.92035C14.9498 4.21353 15.1679 4.56048 15.3105 4.94025C15.4531 5.32003 15.5172 5.72475 15.4991 6.13V7.13" stroke="#F56C87" stroke-width="2" stroke-linecap="round" stroke-linejoin="round"/>
<path id="Vector_4" d="M12.499 20C9.19902 20 6.49902 17.3 6.49902 14V11C6.49902 9.93913 6.92045 8.92172 7.6706 8.17157C8.42074 7.42143 9.43816 7 10.499 7H14.499C15.5599 7 16.5773 7.42143 17.3274 8.17157C18.0776 8.92172 18.499 9.93913 18.499 11V14C18.499 17.3 15.799 20 12.499 20Z" stroke="#F56C87" stroke-width="2" stroke-linecap="round" stroke-linejoin="round"/>
<path id="Vector_5" d="M12.5 20V11" stroke="#F56C87" stroke-width="2" stroke-linecap="round" stroke-linejoin="round"/>
<path id="Vector_6" d="M7.03 9C5.1 8.8 3.5 7.1 3.5 5" stroke="#F56C87" stroke-width="2" stroke-linecap="round" stroke-linejoin="round"/>
<path id="Vector_7" d="M6.49902 13H2.49902" stroke="#F56C87" stroke-width="2" stroke-linecap="round" stroke-linejoin="round"/>
<path id="Vector_8" d="M3.5 21C3.5 18.9 5.2 17.1 7.3 17" stroke="#F56C87" stroke-width="2" stroke-linecap="round" stroke-linejoin="round"/>
<path id="Vector_9" d="M21.4702 5C21.4702 7.1 19.8702 8.8 17.9702 9" stroke="#F56C87" stroke-width="2" stroke-linecap="round" stroke-linejoin="round"/>
<path id="Vector_10" d="M22.4995 13H18.4995" stroke="#F56C87" stroke-width="2" stroke-linecap="round" stroke-linejoin="round"/>
<path id="Vector_11" d="M17.6997 17C19.7997 17.1 21.4997 18.9 21.4997 21" stroke="#F56C87" stroke-width="2" stroke-linecap="round" stroke-linejoin="round"/>
</g>
</svg>

<svg xmlns="http://www.w3.org/2000/svg" fill="none" viewBox="0 0 25 24"><g stroke="#F56C87" stroke-linecap="round" stroke-linejoin="round" stroke-width="2"><path d="m8.5 2 1.88 1.88m4.24 0L16.5 2m-7 5.13v-1a3.003 3.003 0 1 1 6 0v1"/><path d="M12.499 20c-3.3 0-6-2.7-6-6v-3a4 4 0 0 1 4-4h4a4 4 0 0 1 4 4v3c0 3.3-2.7 6-6 6m.001 0v-9"/><path d="M7.03 9C5.1 8.8 3.5 7.1 3.5 5m2.999 8h-4M3.5 21c0-2.1 1.7-3.9 3.8-4M21.47 5c0 2.1-1.6 3.8-3.5 4m4.53 4h-4m-.8 4c2.1.1 3.8 1.9 3.8 4"/></g></svg>
